src/helpers/heroicons/outline/wrench.svg

<svg width="24" height="24" viewBox="0 0 24 24" fill="none" xmlns="http://www.w3.org/2000/svg">
<path d="M21.75 6.75C21.75 9.23528 19.7353 11.25 17.25 11.25C17.1206 11.25 16.9925 11.2445 16.8659 11.2338C15.7904 11.1429 14.6016 11.3052 13.9155 12.1383L6.76432 20.8219C6.28037 21.4096 5.55897 21.75 4.79769 21.75C3.39064 21.75 2.25 20.6094 2.25 19.2023C2.25 18.441 2.59044 17.7196 3.1781 17.2357L11.8617 10.0845C12.6948 9.39841 12.8571 8.20956 12.7662 7.13411C12.7555 7.00749 12.75 6.87938 12.75 6.75C12.75 4.26472 14.7647 2.25 17.25 2.25C17.9103 2.25 18.5375 2.39223 19.1024 2.64774L15.8262 5.92397C16.0823 7.03963 16.9605 7.91785 18.0762 8.17397L21.3524 4.89779C21.6078 5.46268 21.75 6.08973 21.75 6.75Z"  stroke-width="1.5" stroke-linecap="round" stroke-linejoin="round"/>
<path d="M4.86723 19.125H4.87473V19.1325H4.86723V19.125Z"  stroke-width="1.5" stroke-linecap="round" stroke-linejoin="round"/>
</svg>

<svg xmlns="http://www.w3.org/2000/svg" fill="none" viewBox="0 0 24 24" stroke-width="1.5" stroke="currentColor" aria-hidden="true" data-slot="icon">
  <path stroke-linecap="round" stroke-linejoin="round" d="M21.75 6.75a4.5 4.5 0 0 1-4.884 4.484c-1.076-.091-2.264.071-2.95.904l-7.152 8.684a2.548 2.548 0 1 1-3.586-3.586l8.684-7.152c.833-.686.995-1.874.904-2.95a4.5 4.5 0 0 1 6.336-4.486l-3.276 3.276a3.004 3.004 0 0 0 2.25 2.25l3.276-3.276c.256.565.398 1.192.398 1.852Z"/>
  <path stroke-linecap="round" stroke-linejoin="round" d="M4.867 19.125h.008v.008h-.008v-.008Z"/>
</svg>
